X: 1
T: John Stenson's #2
C: Trad.
R: reel
M: 4/4
L: 1/8
K: Amaj
|:"A"ABcA B2cB|ABcA BAFB|ABcA B2cf|eAcA BAFA|
"A"ABcA B2cB|ABcA BAFA|"D"d2dc dfed|1 cdBc "A"A2cB:|2 cdBc ABcd||
|:"A"e2cd edcd|edcA BAFA|e2cd edcA|"D"BdcA BAFA|
e2cd edcd|edcA BAFA|"D"d2dc dfed|1 cdBc "A"ABcd:|2 cdBc "A"A2cB|| 